src/assets/media/svg/sprite/share.svg

<svg width="24" height="24" viewBox="0 0 24 24"  xmlns="http://www.w3.org/2000/svg">
<g clip-path="url(#clip0)">
<path d="M18.075 16.0125C17.1936 16.0102 16.3363 16.3003 15.6375 16.8375L8.66253 12.6375C8.70385 12.4272 8.72892 12.2141 8.73753 12C8.73328 11.7856 8.70817 11.5721 8.66253 11.3625L15.6375 7.2C16.3334 7.74262 17.1926 8.03343 18.075 8.025C18.8686 8.025 19.6444 7.78967 20.3043 7.34877C20.9641 6.90788 21.4784 6.28121 21.7821 5.54802C22.0858 4.81483 22.1653 4.00805 22.0104 3.2297C21.8556 2.45135 21.4735 1.73639 20.9123 1.17524C20.3511 0.614078 19.6362 0.231924 18.8578 0.0771009C18.0795 -0.0777223 17.2727 0.00173856 16.5395 0.305435C15.8063 0.609132 15.1797 1.12342 14.7388 1.78328C14.2979 2.44313 14.0625 3.2189 14.0625 4.0125C14.0668 4.22693 14.0919 4.44044 14.1375 4.65L7.16253 8.8125C6.46664 8.26989 5.60742 7.97907 4.72503 7.9875C4.08931 7.99353 3.46413 8.15052 2.90098 8.44555C2.33784 8.74058 1.85286 9.16519 1.48601 9.68441C1.11915 10.2036 0.880918 10.8026 0.790941 11.4319C0.700963 12.0613 0.761815 12.703 0.968482 13.3042C1.17515 13.9054 1.52172 14.4489 1.97963 14.8899C2.43754 15.3309 2.99369 15.6568 3.60225 15.8407C4.2108 16.0247 4.85436 16.0613 5.47987 15.9478C6.10539 15.8342 6.69497 15.5736 7.20003 15.1875L14.175 19.35C14.1316 19.5599 14.1065 19.7732 14.1 19.9875C14.1 21.0517 14.5228 22.0723 15.2753 22.8248C16.0278 23.5773 17.0483 24 18.1125 24C19.1767 24 20.1973 23.5773 20.9498 22.8248C21.7023 22.0723 22.125 21.0517 22.125 19.9875C22.1013 18.9278 21.6646 17.9192 20.9081 17.1767C20.1516 16.4342 19.135 16.0164 18.075 16.0125Z" />
</g>
<defs>
<clipPath id="clip0002">
<rect width="24" height="24" />
</clipPath>
</defs>
</svg>

<svg xmlns="http://www.w3.org/2000/svg" width="24" height="24"><g clip-path="url(#clip0)"><path d="M18.075 16.013a3.98 3.98 0 0 0-2.437.824l-6.975-4.2q.06-.316.075-.637a3.3 3.3 0 0 0-.075-.637L15.637 7.2a3.9 3.9 0 0 0 2.438.825 4.013 4.013 0 1 0-4.012-4.012q.006.322.074.637L7.163 8.813a3.9 3.9 0 0 0-2.438-.826 4.013 4.013 0 1 0 2.475 7.2l6.975 4.163q-.065.316-.075.637a4.013 4.013 0 0 0 8.025 0 4.066 4.066 0 0 0-4.05-3.974"/></g></svg>
